src/next/cmd/32/tr/italic.svg

<svg height="32" viewBox="0 0 8.4666665 8.466667" width="32" xmlns="http://www.w3.org/2000/svg" xmlns:xlink="http://www.w3.org/1999/xlink"><linearGradient id="a" gradientUnits="userSpaceOnUse" x1="15.115644" x2="16.173977" y1="29.244419" y2="4.90275"><stop offset="0" stop-color="#555"/><stop offset="1"/></linearGradient><linearGradient id="b" gradientUnits="userSpaceOnUse" x1="15.645905" x2="27.236395" y1="3.332286" y2="13.377996"><stop offset="0" stop-color="#3b3e22"/><stop offset="1" stop-color="#454545" stop-opacity="0"/></linearGradient><g transform="matrix(.25 0 0 .25 0 .132292)"><path d="m27.564292 4.839228-1.629833 6.037792-.629709-.07408q.111125-.9630838.111125-1.6668755 0-1.55575-.926041-2.2595417-.926042-.7408364-2.926292-.7408364h-2.037292l-5.148792 18.4467506q-.4445 1.666875-.4445 2.185458 0 .814917.407459 1.148292.407458.333375 1.518708.407459.111125 0 .592667.03704.481541.03704.814916.07408v.592666h-10.7420833v-.592666q1.8520834-.148167 2.7040418-.703792.8519585-.592667 1.2223755-2.037292l5.334-19.5580006h-.777875q-3.741209 0-5.1858338.8519584-1.4446251.8149167-2.8522085 3.7041672l-.66675-.148167 1.5557501-5.704417z" fill="url(#a)" stroke-width=".879992"/><path d="m8.0489352 5.09168-1.434021 5.261694.2227254.05116c.9175274-1.8380098 1.8506478-3.0631826 2.8577067-3.6328532l.00362-.00207c1.0450327-.6146368 2.7981497-.8867647 5.3087177-.8867647h.777213a.25123978.25123978 0 0 1 .242363.3183268l-4.217314 15.4631391a23.389254 12.227354 0 0 0 3.182751-.222725l4.292245-15.3752897a.25123978.25123978 0 0 1 .242363-.1834512h2.037085c1.364684 0 2.395952.2500932 3.081982.7989176.685407.5234728 1.021644 1.3705311 1.021644 2.4551474 0 .4107685-.04171.9124289-.09612 1.4433229l.177765.02119 1.486731-5.509741z" fill="url(#b)"/></g></svg>

<?xml version="1.0" encoding="UTF-8" standalone="no"?>
<svg
   xmlns:dc="http://purl.org/dc/elements/1.1/"
   xmlns:cc="http://creativecommons.org/ns#"
   xmlns:rdf="http://www.w3.org/1999/02/22-rdf-syntax-ns#"
   xmlns:svg="http://www.w3.org/2000/svg"
   xmlns="http://www.w3.org/2000/svg"
   xmlns:xlink="http://www.w3.org/1999/xlink"
   xmlns:sodipodi="http://sodipodi.sourceforge.net/DTD/sodipodi-0.dtd"
   xmlns:inkscape="http://www.inkscape.org/namespaces/inkscape"
   height="32"
   viewBox="0 0 8.4666665 8.466667"
   width="32"
   version="1.1"
   id="svg18"
   sodipodi:docname="italic.svg"
   inkscape:version="0.92.4 (unknown)"
   inkscape:export-filename="/home/rizmut/Dokumen/Rizmut/Github/libreoffice-style-karasa-jaga/build/next/cmd/32/tr/italic.png"
   inkscape:export-xdpi="96"
   inkscape:export-ydpi="96">
  <metadata
     id="metadata24">
    <rdf:RDF>
      <cc:Work
         rdf:about="">
        <dc:format>image/svg+xml</dc:format>
        <dc:type
           rdf:resource="http://purl.org/dc/dcmitype/StillImage" />
        <dc:title></dc:title>
      </cc:Work>
    </rdf:RDF>
  </metadata>
  <defs
     id="defs22">
    <linearGradient
       inkscape:collect="always"
       xlink:href="#b"
       id="linearGradient39"
       gradientUnits="userSpaceOnUse"
       x1="15.115644"
       y1="29.244419"
       x2="16.173977"
       y2="4.90275" />
    <linearGradient
       inkscape:collect="always"
       xlink:href="#b"
       id="linearGradient41"
       gradientUnits="userSpaceOnUse"
       x1="15.115644"
       y1="29.244419"
       x2="16.173977"
       y2="4.90275" />
  </defs>
  <sodipodi:namedview
     pagecolor="#ffffff"
     bordercolor="#666666"
     borderopacity="1"
     objecttolerance="10"
     gridtolerance="10"
     guidetolerance="10"
     inkscape:pageopacity="0"
     inkscape:pageshadow="2"
     inkscape:window-width="1366"
     inkscape:window-height="714"
     id="namedview20"
     showgrid="true"
     inkscape:zoom="5.2149125"
     inkscape:cx="14.965674"
     inkscape:cy="35.792464"
     inkscape:window-x="0"
     inkscape:window-y="28"
     inkscape:window-maximized="1"
     inkscape:current-layer="svg18">
    <inkscape:grid
       type="xygrid"
       id="grid26" />
  </sodipodi:namedview>
  <linearGradient
     id="a"
     gradientUnits="userSpaceOnUse"
     x1="15.645905"
     x2="27.236395"
     y1="3.3322864"
     y2="13.377996">
    <stop
       offset="0"
       stop-color="#3b3e22"
       id="stop2" />
    <stop
       offset="1"
       stop-color="#454545"
       stop-opacity="0"
       id="stop4" />
  </linearGradient>
  <linearGradient
     id="b"
     gradientUnits="userSpaceOnUse"
     x1="15.115644"
     x2="16.173977"
     y1="29.244419"
     y2="4.90275">
    <stop
       offset="0"
       stop-color="#555"
       id="stop7" />
    <stop
       offset="1"
       id="stop9" />
  </linearGradient>
  <g
     id="g34"
     transform="matrix(0.25,0,0,0.25,0,0.13229167)">
    <g
       aria-label="T"
       style="font-size:35.19966888px;font-family:sans-serif;letter-spacing:0;word-spacing:0;fill:url(#linearGradient41);stroke-width:0.87999201"
       id="text14">
      <path
         d="M 27.564292,4.839228 25.934459,10.87702 25.30475,10.80294 q 0.111125,-0.9630838 0.111125,-1.6668755 0,-1.55575 -0.926041,-2.2595417 Q 23.563792,6.1356864 21.563542,6.1356864 H 19.52625 L 14.377458,24.582437 q -0.4445,1.666875 -0.4445,2.185458 0,0.814917 0.407459,1.148292 0.407458,0.333375 1.518708,0.407459 0.111125,0 0.592667,0.03704 0.481541,0.03704 0.814916,0.07408 v 0.592666 H 6.5246247 v -0.592666 q 1.8520834,-0.148167 2.7040418,-0.703792 0.8519585,-0.592667 1.2223755,-2.037292 l 5.334,-19.5580006 h -0.777875 q -3.741209,0 -5.1858338,0.8519584 Q 8.3767081,7.8025565 6.9691247,10.691807 L 6.3023747,10.54364 7.8581248,4.839223 Z"
         style="font-style:italic;font-size:37.04166794px;font-family:FreeSerif;fill:url(#linearGradient39);stroke-width:0.87999201"
         id="path36"
         inkscape:connector-curvature="0" />
    </g>
    <path
       id="path16"
       d="m 8.0489352,5.09168 -1.434021,5.261694 0.2227254,0.05116 C 7.755167,8.5665242 8.6882874,7.3413514 9.6953463,6.7716808 l 0.00362,-0.00207 C 10.743999,6.154974 12.497116,5.8828461 15.007684,5.8828461 h 0.777213 A 0.25123978,0.25123978 0 0 1 16.02726,6.2011729 L 11.809946,21.664312 a 23.389254,12.227354 0 0 0 3.182751,-0.222725 L 19.284942,6.0662973 a 0.25123978,0.25123978 0 0 1 0.242363,-0.1834512 h 2.037085 c 1.364684,0 2.395952,0.2500932 3.081982,0.7989176 0.685407,0.5234728 1.021644,1.3705311 1.021644,2.4551474 0,0.4107685 -0.04171,0.9124289 -0.09612,1.4433229 l 0.177765,0.02119 1.486731,-5.509741 z"
       style="fill:url(#a)"
       inkscape:connector-curvature="0" />
  </g>
</svg>
